!!!!SEGMENT: pl-wumfc--r282--002-012_paderewski-ignacy-jan--exercises-2-exercise-12.krn
!!!cenid: 18xx:3187
!!!COM: Paderewski, Ignacy Jan
!!!COM-rismid: pe30029943
!!!CDT: 1860/11/18-1941/06/29
!!!CNT: Polish
!!!GTL: [Exercises 2]
!!!OTL: [Exercise] 12
!!!OMV: 012
!!!PDT:
!!!AGN:
!!!SMS-siglum: PL-Wumfc
!!!SMS-shelfmark: R282
!!!SMS-shelfwork: 002-012 G
!!!SMS-variant:
!!!SMS-altvar:
!!!NIFC-rismid: 1001158933
!!!URL-scan: http://repozytorium.nifc.pl/skany/pl-wumfc--r282
!!!ONB-nifc: UWAGA: druga grupa ćwiczeń od skanu 0008
!!!AIN: 2 piano
!!!key: G
**kern	**kern
*part2	*part1
*group1	*group1
*staff2	*staff1
*I"[Pianoforte]	*I"[Pianoforte]
*I'	*I'
*Ipiano	*Ipiano
*ICklav	*ICklav
*clefF4	*clefG2
*k[]	*k[]
*G:	*G:
*^	*^
!	!	!LO:TX:a:t=C. f	!
2GG\	8G/L	2g/	8B\L
.	8A/	.	8c\
.	8B/	.	8B\
.	8A/J	.	8A\J
*	*	*v	*v
=1	=1	=1
2E\	8G/L	2g/
!	!LO:SIC:v:s=8F#/	!
.	8F/	.
.	8G/	.
.	8A/J	.
!	!	!LO:SIC:v:s=2f#/
2D\	8B/L	2f/
.	8c/	.
.	8d/	.
!	!LO:SIC:v:s=8F#/	!
.	8F/J	.
=2	=2	=2
2C\	8G/L	2e/
!	!LO:SIC:v:s=8F#/	!
.	8F/	.
.	8G/	.
.	8A/J	.
2D\	8B/L	2d/
.	8c/	.
.	8B/	.
.	8A/J	.
=3	=3	=3
*	*	*^
2E\	8G/L	2g/	16G\LL
.	.	.	16A\
.	8g/	.	16B\
.	.	.	16e\JJ
!	!LO:SIC:v:s=8f#/	!	!
.	8f/	.	4ryy
.	8e/J	.	.
!LO:SIC:v:s=2F#\	!	!	!
2F\	8d/L	2a/	2ryy
.	8e/	.	.
.	8d/	.	.
.	8c/J	.	.
=4	=4	=4	=4
2G;\	2B;/	2r;yy	2b;>/
2G\	2ryy	2b/	8g\L
!	!	!	!LO:SIC:v:s=8f#\
.	.	.	8f\
.	.	.	8e\
.	.	.	8d\J
*v	*v	*	*
!!linebreak:original
=5	=5	=5
2G\	2b/	8e\L
!	!	!LO:SIC:v:s=8f#\
.	.	8f\
.	.	8g\
!	!	!LO:SIC:v:s=8f#\J
.	.	8f\J
2GG\	2b/	8e\L
!	!	!LO:SIC:v:s=8f#\
.	.	8f\
.	.	8e\
.	.	8d\J
=6	=6	=6
2AA\	2a/	8c\L
.	.	8B\
.	.	8A\
!	!	!LO:SIC:v:s=8f#\J
.	.	8f\J
2C\	2g/	8e\L
!	!	!LO:SIC:v:s=8f#\
.	.	8f\
.	.	8e\
.	.	8d\J
=7	=7	=7
2E\	2cc/	8c\L
.	.	8d\
.	.	8e\
!	!	!LO:SIC:v:s=8f#\J
.	.	8f\J
2E\	2b/	8g\L
!	!	!LO:SIC:v:s=8f#\
.	.	8f\
.	.	8e\
.	.	8d\J
=8	=8	=8
2A;\	2a;/	2c;\
2E\	2g/	8e\L
!	!	!LO:SIC:v:s=8f#\
.	.	8f\
.	.	8e\
.	.	8d\J
=9	=9	=9
2A\	2a/	8c\L
.	.	8d\
.	.	8e\
!	!	!LO:SIC:v:s=8f#\J
.	.	8f\J
2G\	2b/	8g\L
!	!	!LO:SIC:v:s=8f#\
.	.	8f\
.	.	8e\
.	.	8d\J
=10	=10	=10
2A\	2a/	8c\L
.	.	8B\
.	.	8c\
.	.	8d\J
2E\	2g/	8e\L
!	!	!LO:SIC:v:s=8f#\
.	.	8f\
.	.	8e\
.	.	8B\J
*	*v	*v
!!linebreak:original
=11	=11
*^	*
2A\	8c/L	2e/
.	8B/	.
.	8c/	.
.	8e/J	.
!	!	!LO:SIC:v:s=2f#/
2D\	8d/L	2f/
.	8e/	.
.	8d/	.
.	8c/J	.
=12	=12	=12
2G;\	2B;/	2g;/
2G\	8B/L	2dd\
.	8A/	.
.	8B/	.
.	8G/J	.
=13	=13	=13
2G\	8g/L	2b/
!	!LO:SIC:v:s=8f#/	!
.	8f/	.
.	8e/	.
.	8d/J	.
2E\	8e/L	2g/
!	!LO:SIC:v:s=8f#/	!
.	8f/	.
.	8e/	.
.	8d/J	.
=14	=14	=14
*	*	*^
2A\	8c/L	2a/	2ryy
.	8B/	.	.
.	8c/	.	.
.	8d/J	.	.
2AA\	2ryy	2cc/	8e\L
.	.	.	8d\
.	.	.	8e\
!	!	!	!LO:SIC:v:s=8f#\J
.	.	.	8f\J
*v	*v	*	*
=15	=15	=15
2BB\	2b/	8g\L
!	!	!LO:SIC:v:s=8f#\
.	.	8f\
.	.	8g\
.	.	8d\J
!	!	!LO:SIC:v:s=8f#\L
2D\	2a/	8f\L
.	.	8e\
.	.	8d\
.	.	8c\J
=16	=16	=16
!LO:N:vis=2.	!	!
2GG;\	2g;/	2B;\
2ryy	2ryy	2ryy
*	*v	*v
==	==
*-	*-
!!!system-decoration: [g1]
!!!RDF**kern: > = above
!!!RDF**kern: < = below
!!!ENC: Katarzyna Serwa
!!!END: 2021-11-16
!!!ENC: Anastazja Marusiak
!!!END: 2021-11-12
